X: 18942
T: Ingemunddansen
R: polka
M: 2/4
K: Gmajor
D GA|:B2d2|c3B|AD FA|GD GB|
B2d2|c3B|AD FA|GD FA|1 G2 G2-|GD GA:|2 [M:3/4] G2 G3D ]|
|:[M:2/4] EE/D/ EF|GB AD|EE/D/ EF|G2 D2|
EE/D/ EF|GB Ac|BB/G/ AF|1 [M:3/4] G2 G3 D:|2 G2 G2-|GD GA||

